images/svg/user.svg

<svg width="24" height="24" viewBox="0 0 24 24" fill="none" xmlns="http://www.w3.org/2000/svg">
<path d="M16.1255 6.75C15.9418 9.22828 14.063 11.25 12.0005 11.25C9.93803 11.25 8.05599 9.22875 7.87553 6.75C7.68803 4.17188 9.51615 2.25 12.0005 2.25C14.4849 2.25 16.313 4.21875 16.1255 6.75Z" stroke="#111111" stroke-width="2" stroke-linecap="round" stroke-linejoin="round"/>
<path d="M12.0001 14.25C7.92199 14.25 3.78293 16.5 3.01699 20.7469C2.92465 21.2588 3.21433 21.75 3.75011 21.75H20.2501C20.7864 21.75 21.0761 21.2588 20.9837 20.7469C20.2173 16.5 16.0782 14.25 12.0001 14.25Z" stroke="#111111" stroke-width="2" stroke-miterlimit="10"/>
</svg>

<svg width="24" height="24" fill="none" xmlns="http://www.w3.org/2000/svg"><path d="M16.125 6.75c-.183 2.478-2.062 4.5-4.124 4.5-2.063 0-3.945-2.021-4.125-4.5-.188-2.578 1.64-4.5 4.125-4.5 2.484 0 4.312 1.969 4.124 4.5z" stroke="#111" stroke-width="2" stroke-linecap="round" stroke-linejoin="round"/><path d="M12 14.25c-4.078 0-8.217 2.25-8.983 6.497-.092.512.197 1.003.733 1.003h16.5c.536 0 .826-.491.734-1.003C20.217 16.5 16.078 14.25 12 14.25z" stroke="#111" stroke-width="2" stroke-miterlimit="10"/></svg>
